X:200
M:6/8
L:1/8
Q:3/8=110
K:F
|:A/B/|cdc fga|cdc cAB|cdc fga|cdc cAB|cAF cAF|D3d3|cBA GFE|F3-F2:|



